svg/map/umbrella_2_fill.svg

<?xml version="1.0" encoding="UTF-8"?>
<svg width="24px" height="24px" viewBox="0 0 24 24" version="1.1" xmlns="http://www.w3.org/2000/svg" xmlns:xlink="http://www.w3.org/1999/xlink">
    <title>umbrella_2_fill</title>
    <g id="Icon" stroke="none" stroke-width="1" fill="none" fill-rule="evenodd">
        <g id="Map" transform="translate(-336.000000, -144.000000)">
            <g id="umbrella_2_fill" transform="translate(336.000000, 144.000000)">
                <path d="M24,0 L24,24 L0,24 L0,0 L24,0 Z M12.5934901,23.257841 L12.5819402,23.2595131 L12.5108777,23.2950439 L12.4918791,23.2987469 L12.4918791,23.2987469 L12.4767152,23.2950439 L12.4056548,23.2595131 C12.3958229,23.2563662 12.3870493,23.2590235 12.3821421,23.2649074 L12.3780323,23.275831 L12.360941,23.7031097 L12.3658947,23.7234994 L12.3769048,23.7357139 L12.4804777,23.8096931 L12.4953491,23.8136134 L12.4953491,23.8136134 L12.5071152,23.8096931 L12.6106902,23.7357139 L12.6232938,23.7196733 L12.6232938,23.7196733 L12.6266527,23.7031097 L12.609561,23.275831 C12.6075724,23.2657013 12.6010112,23.2592993 12.5934901,23.257841 L12.5934901,23.257841 Z M12.8583906,23.1452862 L12.8445485,23.1473072 L12.6598443,23.2396597 L12.6498822,23.2499052 L12.6498822,23.2499052 L12.6471943,23.2611114 L12.6650943,23.6906389 L12.6699349,23.7034178 L12.6699349,23.7034178 L12.678386,23.7104931 L12.8793402,23.8032389 C12.8914285,23.8068999 12.9022333,23.8029875 12.9078286,23.7952264 L12.9118235,23.7811639 L12.8776777,23.1665331 C12.8752882,23.1545897 12.8674102,23.1470016 12.8583906,23.1452862 L12.8583906,23.1452862 Z M12.1430473,23.1473072 C12.1332178,23.1423925 12.1221763,23.1452606 12.1156365,23.1525954 L12.1099173,23.1665331 L12.0757714,23.7811639 C12.0751323,23.7926639 12.0828099,23.8018602 12.0926481,23.8045676 L12.108256,23.8032389 L12.3092106,23.7104931 L12.3186497,23.7024347 L12.3186497,23.7024347 L12.3225043,23.6906389 L12.340401,23.2611114 L12.337245,23.2485176 L12.337245,23.2485176 L12.3277531,23.2396597 L12.1430473,23.1473072 Z" id="MingCute" fill-rule="nonzero"></path>
                <path d="M17,3.33984 C17.4783,3.61599 17.6421,4.22758 17.366,4.70587 L17.3385,4.75343 C20.6879,7.21443 21.9088,11.6747 20.2949,15.4942 C19.8133,16.634 18.4858,16.8994 17.5621,16.3661 L12.3758,13.3718 L9.20982,19.0002 L20,19.0002 C20.5523,19.0002 21,19.4479 21,20.0002 C21,20.5525 20.5523,21.000275 20,21.000275 L7.5137,21.000275 C7.50398,21.000275 7.49425,21.000275 7.48451,21.000275 L4,21.000275 C3.44772,21.000275 3,20.5525 3,20.0002 C3,19.4479 3.44772,19.0002 4,19.0002 L6.91513,19.0002 L10.6436,12.3717 L5.43779,9.36612 C4.51413,8.83285 4.08022,7.55049 4.8265,6.56349 C7.3273,3.25609 11.8005,2.08326 15.6065,3.75343 L15.6339,3.70587 C15.9101,3.22758 16.5217,3.0637 17,3.33984 Z" id="路径" fill="#09244B"></path>
            </g>
        </g>
    </g>
</svg>

<svg xmlns="http://www.w3.org/2000/svg" width="24" height="24"><g fill="none" fill-rule="evenodd"><path d="M24 0v24H0V0h24ZM12.593 23.258l-.011.002-.071.035-.02.004-.014-.004-.071-.035c-.01-.004-.019-.001-.024.005l-.004.01-.017.428.005.02.01.013.104.074.015.004.012-.004.104-.074.012-.016.004-.017-.017-.427c-.002-.01-.009-.017-.017-.018Zm.265-.113-.013.002-.185.093-.01.01-.003.011.018.43.005.012.008.007.201.093c.012.004.023 0 .029-.008l.004-.014-.034-.614c-.003-.012-.01-.02-.02-.022Zm-.715.002a.023.023 0 0 0-.027.006l-.006.014-.034.614c0 .012.007.02.017.024l.015-.002.201-.093.01-.008.004-.011.017-.43-.003-.012-.01-.01-.184-.092Z"/><path fill="#09244B" d="M17 3.34a1 1 0 0 1 .366 1.366l-.027.047a9.004 9.004 0 0 1 2.956 10.741c-.482 1.14-1.81 1.405-2.733.872l-5.186-2.994L9.21 19H20a1 1 0 1 1 0 2H4a1 1 0 0 1 0-2h2.915l3.729-6.628-5.206-3.006c-.924-.533-1.358-1.816-.611-2.803a9.004 9.004 0 0 1 10.78-2.81l.027-.047A1 1 0 0 1 17 3.34Z"/></g></svg>
